X:7746
T:Uncle Bernard's Polka
O:england
M:4/4
L:1/8
K:G
|:G2A2B2c2|d3e dc B2|c3d cB A2|B3c B2A2|
G2A2B2c2|d3e d2g2|fedc B2A2|G4G4:|
|:g2g2f2e2|d3e dc B2|c3d cB A2|B3c B2d2|
g2g2f2e2|d3e d2g2|fedc B2A2|G4G4:|
